actions/22x22-light/action-rss_tag.svg

<svg viewBox="0 0 22 22" xmlns="http://www.w3.org/2000/svg"><path d="m12.988281 3c-.82668 0-1.981916.4779796-2.566406 1.0625l-6.984375 6.984375c-.5844904.58449-.5844904 1.54051 0 2.125l5.390625 5.390625c.5844904.58452 1.54048.58452 2.125 0l6.984375-6.984375c.58449-.58452 1.0625-1.7398157 1.0625-2.5664062v-4.5078126c-.00003-.8266205-.675333-1.5039062-1.501953-1.5039062zm2.511719 2c .828421 0 1.5.6715795 1.5 1.5s-.671579 1.5-1.5 1.5-1.5-.6715495-1.5-1.5c0-.8284205.671579-1.5 1.5-1.5z" fill="#4d4d4d"/></svg>

<svg xmlns="http://www.w3.org/2000/svg" viewBox="0 0 22 22">
  <defs id="defs3051">
    <style type="text/css" id="current-color-scheme">
      .ColorScheme-Text {
        color:#4d4d4d
      }
      </style>
  </defs>
 <path 
     style="fill:currentColor;fill-opacity:1;stroke:none"      
	 class="ColorScheme-Text"
        d="M 12.988281 3 C 12.161601 3 11.006365 3.4779796 10.421875 4.0625 L 3.4375 11.046875 C 2.8530096 11.631365 2.8530096 12.587385 3.4375 13.171875 L 8.828125 18.5625 C 9.4126154 19.14702 10.368605 19.14702 10.953125 18.5625 L 17.9375 11.578125 C 18.52199 10.993605 19 9.8383093 19 9.0117188 L 19 4.5039062 C 18.99997 3.6772857 18.324667 3 17.498047 3 L 12.988281 3 z M 15.5 5 C 16.328421 5 17 5.6715795 17 6.5 C 17 7.3284205 16.328421 8 15.5 8 C 14.671579 8 14 7.3284505 14 6.5 C 14 5.6715795 14.671579 5 15.5 5 z "
     />
</svg>
